X:1
T:Nerida bella
T:Nerida bella
T:Raffaello Rontani
T:Source : Le varie Musiche a uno e due voci---Roma---G.B.Robletti---1622. Editor : André Vierendeels (25/05/16)
T:Notes :  Original clefs : C1, C4, F4 Editorial accidentals above the staff Figures  above the BC are notated in original print m 62 in BC "C" notated as "E" in original print
T:©
T:©
T:©
T:©
T:©
T:©
T:©
T:©
T:©
T:©
C:Raffaello Rontani
Z:©
%%score [ 1 2 ] { 3 | 4 }
L:1/8
Q:1/4=90
M:4/4
K:F
V:1 treble nm="Soprano" snm="S"
V:2 treble-8 nm="Tenor" snm="T"
V:3 treble nm="MusicXML Part"
V:4 bass 
V:1
 z8 | z8 | z8 | z8 | z8 | z8 | z8 | z4 z FFF | G2 Ac cc B2 | A2 FG ABBc | c3 B B4 | B2 DE FGAc | %12
w: |||||||Si fi cor|mio tra que- sti fio- ri,|po- sià- ci al om- bra ch'il|cal- do sgom-|bra, ch'io pur de- si- o tem-|
 c3 =B c2 cB | TA3 G G2 FF | G3 F F2 F2 | z8 | z8 | z8 | z8 | z8 | z8 | z8 | z8 | z8 | %24
w: prar gl'ar- do- ri tra|que- ste'au- ret- te co-|si di- let- te,||||||||||
 z2 GG c2 B2 | TA3 G GDGF | E2 D2 E3 D | D4 D2 FF | G2 A2 BATAG | AGFE D2 C2 | D3 C C4 | %31
w: mi- ra'il fon- te|su quel mon- te o- ve|na- sce que- sto|ri- o per far|bel- lo il pra- * ti-|cel- lo, par che di- chi'à|voi l'in- ni-|
 C2 cB A2 G2 | A3 G G2 G2 | z8 | z8 | z8 | z8 | z8 | z8 | z8 | z4 G3 D | GF E2 D2 F2- | %42
w: o, par che di- chi'à|voi l'in- ni- o,||||||||ve- d'i|va- ghi'au- gel- li, so-|
 FFGA B2 A2 | z2 G3 EFC | D3 C C4 | z8 | z8 | z8 | z8 | z8 | z8 | z2 FD F2 EG | GF E2 DFGA | %53
w: * pra gl'ar- bo- scel- li,|co- me lie- ti|sal- ta- no,|||||||sen- ti, sen- ti quel|car- del- li- no co- me ve-|
 B2 A2 G/F/G/E/ F/G/A/B/ | c/C/D/E/ F/G/A/B/ c2 GG | G4 F4 | z4 z GEG | G>^F GF E2 DA | %58
w: lo- ce sno- * * * * * * *|* * * * * * * * * da la|vo- ce,|can- tia- m'a|ga- ra, _ a ga- ra con|
 B2 AG G2 F2 | z D F2 EF G2 | EE F4 EC | D4 C4 | cA c2 AGGF | G2 G2 z2 cG | BA G2 AGFE | %65
w: que- st'iau- gel- let- ti|qui l'o- re pas- sia-|mo fra gio- i'e di-|let- ti,|sen- ti, sen- ti quel ro- sing-|nuo- lo, co- me|lie- to ri- spon- de'al no- stro|
 F/G/A/E/ F/G/A/B/ c/B/A/B/ c/B/A/G/ | A/E/F/G/ A/G/G/F/ G4 | z8 | z8 | z8 | z4 z FDF | %71
w: can- * * * * * * * * * * * * * * *|* * * * * * * to, _||||can- tia- mo'a|
 F>E- F2 z GEG | G>^F GF E2 DA | B2 AG G2 F2 | z D F2 EF G2 | EE F4 EC | D4 C4 | z A c2 =BB c2 | %78
w: ga- ra, _ can- tia- m'a|ga- ra, _ a ga- ra con|que- sti'au- gel- let- ti|qui l'o- re pas- sia-|mo fra gio- i'e di-|let- ti,|qui l'o- re pas- sia-|
 AA B/c/B/A/ Gc/B/ A/B/A/G/ | FG/A/ B2 A3 G | G8 | F8 |] %82
w: mo fra gio- * * * * * * * * * *|* * * * i'e di-|let-|ti.|
V:2
 z FFF G2 Ac | cc B2 Acde | f2 cc c3 B | B4 BFGA | B2 Ac Tc3 =B |"^b" c2 cB A3 G | G2 FF TG3 F | %7
w: Ne- ri- da bel- la, po-|si- am- ci'un po- co'in que- sto|pra- to din fio- ri'or-|na- to, ch'e- tà no-|vel- la piu ca- ro|lo- co ne piu gio-|cen- do non hà nel|
 F2 F2 z4 | z8 | z8 | z8 | z8 | z8 | z8 | z8 | z2 cc f2 e2 | d3 c cGcB | A2 G2 A3 G | G4 G2 BB | %19
w: mon- do,||||||||quant' è'ad- or- no|d'o- gn'in- tor- no di ci-|pres- si'e verd' al-|lo- ri, pa- re'il|
 c2 d2 _eddc | dcBA G2 F2 | G3 F F4 | F2 fe d2 c2 | d3 c c2 c2 | z8 | z8 | z8 | z8 | z8 | z8 | z8 | %31
w: ni- do ca- ro'e fi- do'e|fi- do del- le gra- ti'e|de gl'a- mo-|ri, del- le gra- ti'e|de gl'a- mo- ri,||||||||
 z8 | z8 | z2 BB c2 d2 |"^-natural" _e3 B ccde | f2 e2 d3 c | c4 c2 GA | BAAG AG>AB | cBBA B2 c2 | %39
w: ||mi- ra'i gi- gli'e'i|gel- so- mi- ni, mi- ra'i|chron- chi'e gl'a- ma-|ran- ti'e le ro-|se- * * * se _ _ steg-|gian- * * ti com' ad-|
 dc B>A A4 | G4 z4 | z8 | z8 | z8 | z8 | c3 G cB A2 | G2 B3 Bcd | _e2 d2 z2 c2- | cABF G3 F | %49
w: or- na- no'i con- fi-|ni,|||||sen- ti com' à schie-|ra nel- la pri- ma-|ve- ra, dol|_ ce- men- te can- ta-|
 F2 f3 d_eB | c3 B B4 | z8 | z8 | z8 | z8 | z8 | z cAc c>=B c2 | z dBd d>^c dD | G2 AB c2 FA | %59
w: no, dol- ce- men- te|can- ta- no,||||||can- tia- m'a ga- ra, _|can- tia- m'a ga- ra, _ con|que- sti'au- ge- let- ti qui|
 B2 AB c2 =BB | c2 AA =B2 cc | c3 =B c4 | z8 | z8 | z8 | z8 | z8 | c2 G2 z c B>A | A2 A2 z ABc | %69
w: l'o- re pas- sia- mo fra|gio- i'e, fra gio- i'e di-|let- * ti,||||||o- di la ron- di-|nel- la co- me fe-|
 d3 c c4 | B4 z4 | z cAc c>=B c2 | z dBd d>^c dD | G2 AB c2 FA | B2 AB c2 =BB | c2 AA =B2 cc | %76
w: sleg- gi'an- chel-|la,|can- tia- m'a ga- ra, _|can- ti- m'a ga- ra _ con|que- sti'au- gel- let- ti qui|l'o- re pas- sia- mo fra|gio- i'e, fra gio- i'e di-|
 c3 =B c3 E | F2 EF G2 EE | F/G/F/E/ DG/F/ E/F/E/D/ CD/E/ | F/D/E/F/ G2 A2 B2 | c8 | F8 |] %82
w: let- * ti, qui|l'o- ra pas- sia- mo fra|gio- * * * * * * * * * * * * *|* * * * * i'e di-|let-|ti.|
V:3
 z8 | z8 | z8 | z8 | z8 | z8 | z8 | z8 | z8 | z8 | z8 | z8 | z8 | z8 | z8 | z8 | z8 |"^b" z8 | z8 | %19
 z8 | z8 | z8 | z8 | z8 | z8 | z8 | z8 | z8 | z8 | z8 | z8 | z8 | z8 | z8 | z8 | z8 | z8 | z8 | %38
 z8 | z8 | z8 | z8 | z8 | z8 | z8 | z8 | z8 | z8 | z8 | z8 | z8 | z8 | z8 | z8 | z8 | z8 | z8 | %57
 z8 | z8 | z8 | z8 | z8 | z8 | z8 | z8 | z8 | z8 | z8 | z8 | z8 | z8 | z8 | z8 | z8 | z8 | z8 | %76
 z8 | z8 | z8 | z8 | z8 | z8 |] %82
V:4
 F,4 C,2 F,,2 | F,2 G,2 F,2 E,2 |"^4b" D,2 _E,2 F,4 | B,,6 A,,2 |"^4" G,,2 F,,2 G,,4 | %5
"^-natural""^4""^-natural" C,4 D,4 |"^6""^6" G,,2 A,,2 B,,2 C,2 | F,,4 F,,4 | C,2 F,,2 F,2 G,2 | %9
 F,2 _E,2 D,2 E,2 | F,4 B,,4 | B,2 A,2 G,2 F,2 |"^4" G,4 C,4 |"^4" D,4 G,,2 A,,2 | %14
"^6" B,,2 C,2 F,,4 | F,4 D,2 E,2 |"^6""^-natural" F,2 G,2 C,4 |"^6""^#" D,2 _E,2 C,2 D,2 | %18
"^-natural""^b" G,,6 G,2 |"^b" F,2 D,2 C,2 F,2 | B,,4 C,2 D,2 |"^6" B,,2 C,2 F,,2 G,,2 | %22
"^-natural""^6" A,,2 F,,2 G,,2 E,,2 |"^6""^-natural" F,,2 G,,2 C,4 | C,4 A,,2 B,,2 | %25
"^6" C,2 D,2 G,,4 |"^#""^6""^4#" A,,2 B,,2 A,,4 |"^#" D,,6 D,2 |"^-natural" C,2 A,,2 G,,2 C,2 | %29
 F,,4 G,,2 E,,2 |"^6""^-natural" F,,2 G,,2 C,2 D,2 | E,2 C,2 D,2 _E,2 | C,2 D,2 G,,4 | %33
 G,,2 G,2 F,2 D,2 | C,2 G,2 F,2 E,2 |"^6" D,2 E,2 F,2 G,2 |"^-natural" C,2 D,2 E,2 C,2 | %37
 D,2 E,2 F,2 D,2 | E,2 ^F,2 G,2 E,2 |"^4 #" ^F,2 G,2 D,4 | G,,4 G,,4 |"^#" G,,2 A,,2 D,2 C,2 | %42
 B,,2 A,,2 G,,2 A,,2 | =B,,4 C,2 A,,2 |"^4 -natural" G,,4 C,4 | C,6 D,2 |"^#" G,2 F,2 _E,2 D,2 | %47
"^6" C,2 D,2 E,4 |"^6""^4 3" F,2 D,2 C,4 | F,,4 B,2 G,2 |"^6" F,4 B,,4 | B,,6 C,2 | %52
 G,,2 A,,2 D,2 C,2 | B,,2 F,2 E,2 D,2 | C,2 B,,2 A,,2 B,,2 | C,4 F,,4 |"^-natural" F,4 G,2 E,2 | %57
"^#""^#" D,2 G,,2 A,,2 D,2 | G,2 A,B, C2 F,2 | B,2 A,B, C2 =B,2 | C2 A,2 =B,2 C2 | %61
"^4 -natural" G,4 C,4 | F,,8 | C,8 | G,,4 D,4 |"^6" A,,8 | A,,4 C,4 | C,8 | F,,8 | B,,2 _E,2 F,4 | %70
 B,,4 B,,4 | C,2 F,,2 G,,2 C,2 |"^-natural""^#" D,2 G,,2 A,,2 D,2 |"^#""^#" G,2 A,B, C2 F,2 | %74
 B,2 A,B, C2 =B,2 | C2 A,2 =B,2 C2 | G,4 C,4 | F,3 E,/F,/ G,2 C,2 | F,,2 G,,2 C,2 F,,2 | %79
 F,2 G,2 A,2 B,2 | C,8 | F,,8 |] %82

